X:1
T:Gott sei gelobet
T:Balthasar Resinarius
T:Source : DDT 34---Leipzig---Breitkopf & Härtel---J.Wolf---1908. First print : Newe Deudsche Geistliche Gesenge---Wittemberg---G.Rhau---1544. Editor : André Vierendeels (04/08/17).
T:Gott sei gelobet
T:©
T:©
T:©
T:©
C:Balthasar Resinarius
Z:©
%%score [ 1 [ 2 3 ] 4 ]
L:1/8
Q:1/4=120
M:2/2
K:C
V:1 treble nm="Soprano" snm="S"
V:2 treble-8 nm="Tenor 1" snm="T 1"
V:3 treble-8 nm="Tenor 2" snm="T 2"
V:4 bass nm="Bass" snm="B"
V:1
 z8 | z8 | z4 G4 | G2 G2 A4 | G8 | z4 c3 B | c2 B2 A3 G | E2 G4 F2 | G4 z4 | A4 c4 | G4 E4- | %11
w: ||Gott|sei ge- lo-|bet|und ge-|be- ne dei- *||et,|der uns|sel- ber|
 E2 DC D4 | C2 G2 F2 A2- | AG G4 F2 | !fermata!G8 | G4 E2 E2 | F8 | !fermata!E8 | z8 | z8 | G4 G4 | %21
w: _ _ _ hat|ge- spei- * *||set,|Ky- ri- e,e-|lei-|son.|||Herr, durch|
 A4 B4 | c3 B G2 c2- | c2 B2 c4 | B3 A G2 A2- | AG G4 F2 | G8 | z4 B4 | c4 d4 | d4 c3 B | A4 G4 | %31
w: dei- nen|hei- li- gen Leich-||||nam,|der|von dei-|ner Mut- *|ter Ma-|
 G6 FE | !fermata!D8 | z8 | z4 E4 | F4 G4 | F3 E/D/ E4- | E4 z2 A2- | AG G4 F2 | G4 D4 | F6 ED | %41
w: ri- a _|kam,||und|das hei-|li- ge _ Blut|_ hilf|_ _ uns, _|Herr, aus|al- ler _|
 C4 z2 D2- | DC C4 B,2 | C2 c4 BA | GFED E2 E2 | F4 F4 | E8 |] %47
w: Not. Ky-|* ri- e, e-|lei- * * *|||son.|
V:2
 G4 G2 G2 | A4 G2 c2- | c2 B2 c3 B | c2 B2 A4 | B2 c4 c2 | c3 d e3 e | e2 d2 f4 | e4 d3 c | %8
w: Gott sei ge-|lo- bet und|_ ge- be- ne-|dei- * *|et, und ge|be- * * ne-|dei- et, der|uns sel- *|
 d2 B3 ABc | d4 e4 | z2 c2 c4 | c4 A3 B | c2 G2 d4- | d2 c2 d4 | !fermata!B8 | c4 c2 c2 | %16
w: |* ber,|der uns|sel- ber _|_ hat ge-|* * spei-|set,|Ky- ri- e,|
 A2 c4 B2 | !fermata!c8 | G4 G4 | A4 B4 | c4 B2 B2 | c3 B G2 d2 | e6 dc | d4 z2 c2 | d4 e2 A2 | %25
w: e- lei- *|son.|Herr, durch|dei- nen|hei- li- gen|Leich- * * *||nam, duch|dei- nen hei-|
 B2 c2 d4 | d6 e2 | f4 g4 | e4 d4- | d2 cB A4 | z2 f2 e4- | e2 dc B4- | B2 d3 c BA | G4 z4 | %34
w: * li- gen|Leich- *|nam, der|von dei-|* * * ner|Mut- ter|_ Ma- * ri-|* * * a _|kam,|
 B4 c4 | d4 B2 c2 | A3 B c4- | c4 A2 d2- | d2 c2 d4 | B4 B4 | A4 A4 | A4 z4 | G4 G4 | E2 e4 dc | %44
w: und das|hei- * *|li- gen Blut|_ hilf _|_ _ uns,|Herr, aus|al- ler|Not.|Ky- ri-|e, [e- lei- *|
 c4 c2 c2 | A2 c4 B2 | c8 |] %47
w: son, Ky- ri-|e,] e- lei-|son.|
V:3
 z8 | z8 | z8 | z8 | G4 G2 G2 | A4 G4- | G4 c3 B | c2 B2 A4 | G8 | z4 A4 | c4 G4 | E4 F4 | %12
w: ||||Gott sei ge-|lo- bet|_ und ge-|be- ne dei-|et,|der|uns sel-|ber hat|
 E4 D3 E | F2 G2 A4 | !fermata!G8 | G4 G2 G2 | A3 G F4 | !fermata!G8 | z8 | z8 | z8 | z8 | z4 G4 | %23
w: ge spei- *||set,|Ky- ri- e,|e- * lei-|son.|||||Herr,|
 G4 A4 | B4 c4 | G2 G2 A4 | G2 B4 c2 | d4 d4 | c4 B4- | B2 AG A3 B | c2 d2 B2 c2- | c2 BA G3 A | %32
w: durch dei-|nen hei-|li- gen Leich-|nam, der von|dei- ner|Mut- ter|_ Ma- * ri- *||* * * a _|
 !fermata!B8 | z8 | z8 | z4 E4 | F4 G4- | G4 F4- | F2 G2 A4 | G8 | D4 F4 | E4 D4 | E4 D4 | C8 | %44
w: kam,|||und|das hei-|* li-|* * ge|Blut|hilf uns,|Herr, aus|al- ler|Not..|
 G4 G2 G2 | A3 G F4 | G8 |] %47
w: Ky- ri- e,|e- * lei-|son.|
V:4
 z8 | C,4 C,2 C,2 | D,4 C,4 | z4 F,4 | E,2 C,3 D, E,C, | F,3 E, C,4 | z2 G,2 F,3 E, | C,2 C,2 D,4 | %8
w: |Gott sei ge-|lo- bet|und|ge- be- * ne- *|dei- * et,|ge- be- *|* ne- dei-|
"^#" G,,2 G,4 F,E, | D,4 z4 | C,4 C,4 | C,2 A,,2 D,4 | A,,2 C,2 D,3 C, | D,2 E,2 D,4 | %14
w: |et,|der uns|sel- ber hat|ge- * spei- *||
 !fermata!G,,8 | C,4 C,2 C,2 | F,3 E, D,4 | !fermata!C,8 | z4 C,4 | C,4 D,4 | E,8 | F,4 G,2 G,2 | %22
w: set,|Ky- ri- e,|e- * lei-|son.|Herr,|durch dei-|nen|hei- li- gen|
 C,4 C,4 | z2 G,2 F,2 A,2 | G,4 E,2 F,2 | E,4 D,4 | z2 G,4 F,E, | D,4 G,4 | C,4 G,4 | z4 F,3 G, | %30
w: Leich- nam,|durch dei- nen|hei- li- gen|Leich- nam,|der von _|dei- ner|Mut- ter|Ma- *|
 A,2 D,2 E,2 C,2- | C,2 D,2 E,3 F, | G,2 G,,2 !fermata!G,,4 | E,4 F,4 | G,F,E,D, E,4 | %35
w: * ri- * *||* a kam,|und das|hei- * * * *|
 D,4 E,2 C,2 | D,4 C,4- | C,4 D,4- | D,2 E,2 D,4 | G,,4 G,,4 | D,4 D,4 | A,,4 B,,4 | C,4 G,,4 | %43
w: * * li-|ge Blut|_ _||hilf uns,|Herr, aus|al- *|* ler|
 C,4 z4 | C,4 C,2 C,2 | F,3 E, D,4 | C,8 |] %47
w: Not.|Ky- ri- e,|e- * lei-|son.|

